X: 34906
T: Rock All Our Babies To Sleep
R: waltz
M: 3/4
K: Dmajor
FG|A2 B3 A|G2 A2 G2|(F2A,3 D)|F4 FG|
F2 E2 F2|1 ,3 G2 F2 G2|B4A2|F4:|2 ,4 G3F E2|D6-|D4||
FG|A2f3 A|B2 g4|Af- fg fd|A4 cd|
c2 E3 F|G3 F G2|1 ,3 B4 A2|F4:|2 ,4 G3F E2|D6-|D4||

